assets/src/images/icons/ic_lo.svg

<svg width="56" height="52" viewBox="0 0 56 52" fill="none" xmlns="http://www.w3.org/2000/svg">
<mask id="path-1-outside-1" maskUnits="userSpaceOnUse" x="0" y="0" width="56" height="52" fill="black">
<rect fill="white" width="56" height="52"/>
<path d="M53.1192 26.5522H51.2293C51.0523 23.6788 50.3525 20.9054 49.1413 18.2982C48.9564 17.899 48.4829 17.7262 48.0837 17.911C47.6846 18.0963 47.5114 18.5698 47.6966 18.969C48.8094 21.3652 49.4586 23.9126 49.633 26.5522H13.1535C12.7136 26.5522 12.3572 26.9086 12.3572 27.3485C12.3572 27.7883 12.7136 28.1447 13.1535 28.1447H53.1192C53.5221 28.1447 53.8494 28.4724 53.8494 28.8753V29.8473C53.8494 30.2502 53.5221 30.5779 53.1192 30.5779H3.32312C2.92022 30.5779 2.59291 30.2502 2.59291 29.8473V28.8753C2.59291 28.4724 2.92022 28.1447 3.32312 28.1447H9.4414C9.88126 28.1447 10.2381 27.7883 10.2381 27.3485C10.2381 26.9086 9.88126 26.5522 9.4414 26.5522H6.80925C7.16023 21.2618 9.42894 16.3401 13.2528 12.6177C16.9378 9.0306 21.6996 6.9189 26.7886 6.58412C26.7915 6.58412 26.7944 6.58454 26.7973 6.58412C27.0141 6.57 27.2284 6.5592 27.4403 6.55131C27.4826 6.55006 27.5246 6.54799 27.567 6.54674C27.6425 6.54425 27.7177 6.54259 27.7921 6.54093C27.935 6.53843 28.0778 6.53594 28.2211 6.53594C28.4114 6.53594 28.6016 6.53968 28.7914 6.54466C28.8475 6.54633 28.9032 6.54799 28.9597 6.54965C29.1059 6.55463 29.2517 6.56211 29.3975 6.57C29.4747 6.57415 29.552 6.57831 29.6296 6.58329C36.1678 7.01278 42.1831 10.4129 45.9264 15.865C46.1752 16.2272 46.6711 16.3198 47.0337 16.0706C47.3963 15.8218 47.4885 15.3258 47.2393 14.9632C43.5559 9.59799 37.8227 6.08403 31.4859 5.17771C31.883 4.56131 32.106 3.83567 32.106 3.07556C32.106 2.64276 31.9129 1.84485 30.6194 1.36884C29.9736 1.13125 29.1217 1 28.2211 1C27.3202 1 26.4683 1.13125 25.8224 1.36884C24.529 1.84485 24.3363 2.64276 24.3363 3.07556C24.3363 3.8336 24.5585 4.55799 24.9531 5.17314C20.1419 5.85392 15.6797 8.03207 12.1417 11.4763C8.0084 15.4999 5.56649 20.8281 5.21301 26.5518H3.32312C2.04214 26.5522 1 27.5944 1 28.8753V29.8473C1 31.1287 2.04214 32.1708 3.32312 32.1708H11.9024C11.4742 32.4641 11.0638 32.793 10.6796 33.1581L10.6638 33.1731C10.6393 33.1959 10.616 33.2204 10.5949 33.2466L6.81382 37.838C6.33948 37.5369 5.77791 37.4272 5.22381 37.5336C4.64605 37.644 4.14637 37.973 3.81657 38.4598L2.32957 40.6525C1.64963 41.6556 1.91213 43.0259 2.9144 43.7067L13.0895 50.6191C13.4584 50.8696 13.8845 51 14.3211 51C14.4598 51 14.5998 50.9867 14.7393 50.9601C15.3167 50.8496 15.8164 50.5207 16.1462 50.0339L17.6332 47.8412C18.3131 46.8381 18.051 45.4678 17.0487 44.787L16.9906 44.7476C17.6988 43.9438 18.6429 43.3677 19.6701 43.1301C21.8345 42.6288 24.3815 42.9515 26.109 43.2377C28.2461 43.5916 30.4907 43.4707 32.6003 42.888L35.5328 42.0776C37.4862 41.5376 39.2839 40.6284 40.8764 39.3749C40.8884 39.3653 40.9001 39.3558 40.9117 39.3454L45.9463 34.8865C46.8044 34.2298 46.9913 33.0925 46.6952 32.1708H53.1192C54.4002 32.1708 55.4423 31.1287 55.4423 29.8477V28.8753C55.4423 27.5944 54.4002 26.5522 53.1192 26.5522ZM28.2211 2.59291C29.5624 2.59291 30.3661 2.92479 30.5131 3.10921C30.5023 3.86475 30.1202 4.56173 29.4984 4.97958C29.3418 4.97127 29.1873 4.96463 29.0332 4.95881C28.9813 4.95715 28.9293 4.95466 28.8774 4.95341C28.6552 4.94677 28.4359 4.94344 28.2211 4.94344C28.0687 4.94344 27.9134 4.94552 27.7568 4.94884C27.6812 4.95009 27.6052 4.95217 27.5292 4.95466C27.4386 4.95757 27.3472 4.96047 27.2558 4.96421C27.1516 4.96878 27.0473 4.97335 26.9435 4.97917C26.3217 4.56131 25.94 3.86433 25.9292 3.10921C26.0762 2.92479 26.8799 2.59291 28.2211 2.59291ZM33.9324 32.555C33.873 32.4205 33.8019 32.2925 33.7218 32.1708H41.3607L38.0577 34.3569L33.3496 35.7188L33.1897 35.7226C34.096 34.967 34.4267 33.6769 33.9324 32.555ZM25.2962 32.1708L24.1469 32.4105L23.2584 32.1708H25.2962ZM16.3148 46.9473L14.8282 49.14C14.7373 49.2746 14.5994 49.3651 14.4399 49.3959C14.2808 49.4262 14.1188 49.393 13.9846 49.3016L3.80951 42.3891C3.53288 42.2014 3.4606 41.8234 3.64835 41.5468L5.13534 39.3537C5.22631 39.2195 5.36379 39.1285 5.52329 39.0982C5.56192 39.0907 5.60055 39.087 5.63876 39.087C5.75921 39.087 5.87676 39.1231 5.97853 39.1925L6.52805 39.5655C6.52805 39.5659 6.52846 39.5659 6.52846 39.5659L16.1536 46.1045C16.4303 46.2923 16.5025 46.6707 16.3148 46.9473ZM44.9689 33.6287C44.9498 33.6424 44.9316 33.6574 44.9137 33.6732L39.8737 38.1375C38.4528 39.2519 36.8495 40.061 35.1087 40.542L32.1762 41.3524C30.288 41.8745 28.2801 41.9829 26.3699 41.6664C24.5082 41.3582 21.7519 41.013 19.3108 41.5784C17.8969 41.9057 16.606 42.7181 15.6668 43.8479L8.13924 38.7344L11.7928 34.2975C13.1747 32.9928 14.9271 32.2182 16.6051 32.1708H16.6375C17.158 32.1621 17.7088 32.3154 18.2915 32.4786C18.4086 32.511 18.5254 32.5438 18.6425 32.5754L23.9159 33.998C24.0368 34.0304 24.1635 34.0341 24.286 34.0084L31.1926 32.5683C31.5058 32.5035 31.8348 32.5671 32.0952 32.7436C32.2634 32.8578 32.3947 33.0148 32.4749 33.1972C32.7116 33.7342 32.4886 34.3648 31.9594 34.6372L29.6031 35.885C29.277 36.0578 29.1125 36.4316 29.2051 36.7888C29.2982 37.1464 29.6234 37.3898 29.9931 37.3849L33.4883 37.3093C33.5577 37.3076 33.6263 37.2972 33.6923 37.2781L38.6172 35.8534C38.6949 35.831 38.7684 35.7969 38.8357 35.7525L43.8043 32.4637C44.2213 32.2061 44.7762 31.9943 45.0715 32.43C45.3017 32.7689 45.3071 33.3791 44.9689 33.6287Z"/>
</mask>
<path d="M53.1192 26.5522H51.2293C51.0523 23.6788 50.3525 20.9054 49.1413 18.2982C48.9564 17.899 48.4829 17.7262 48.0837 17.911C47.6846 18.0963 47.5114 18.5698 47.6966 18.969C48.8094 21.3652 49.4586 23.9126 49.633 26.5522H13.1535C12.7136 26.5522 12.3572 26.9086 12.3572 27.3485C12.3572 27.7883 12.7136 28.1447 13.1535 28.1447H53.1192C53.5221 28.1447 53.8494 28.4724 53.8494 28.8753V29.8473C53.8494 30.2502 53.5221 30.5779 53.1192 30.5779H3.32312C2.92022 30.5779 2.59291 30.2502 2.59291 29.8473V28.8753C2.59291 28.4724 2.92022 28.1447 3.32312 28.1447H9.4414C9.88126 28.1447 10.2381 27.7883 10.2381 27.3485C10.2381 26.9086 9.88126 26.5522 9.4414 26.5522H6.80925C7.16023 21.2618 9.42894 16.3401 13.2528 12.6177C16.9378 9.0306 21.6996 6.9189 26.7886 6.58412C26.7915 6.58412 26.7944 6.58454 26.7973 6.58412C27.0141 6.57 27.2284 6.5592 27.4403 6.55131C27.4826 6.55006 27.5246 6.54799 27.567 6.54674C27.6425 6.54425 27.7177 6.54259 27.7921 6.54093C27.935 6.53843 28.0778 6.53594 28.2211 6.53594C28.4114 6.53594 28.6016 6.53968 28.7914 6.54466C28.8475 6.54633 28.9032 6.54799 28.9597 6.54965C29.1059 6.55463 29.2517 6.56211 29.3975 6.57C29.4747 6.57415 29.552 6.57831 29.6296 6.58329C36.1678 7.01278 42.1831 10.4129 45.9264 15.865C46.1752 16.2272 46.6711 16.3198 47.0337 16.0706C47.3963 15.8218 47.4885 15.3258 47.2393 14.9632C43.5559 9.59799 37.8227 6.08403 31.4859 5.17771C31.883 4.56131 32.106 3.83567 32.106 3.07556C32.106 2.64276 31.9129 1.84485 30.6194 1.36884C29.9736 1.13125 29.1217 1 28.2211 1C27.3202 1 26.4683 1.13125 25.8224 1.36884C24.529 1.84485 24.3363 2.64276 24.3363 3.07556C24.3363 3.8336 24.5585 4.55799 24.9531 5.17314C20.1419 5.85392 15.6797 8.03207 12.1417 11.4763C8.0084 15.4999 5.56649 20.8281 5.21301 26.5518H3.32312C2.04214 26.5522 1 27.5944 1 28.8753V29.8473C1 31.1287 2.04214 32.1708 3.32312 32.1708H11.9024C11.4742 32.4641 11.0638 32.793 10.6796 33.1581L10.6638 33.1731C10.6393 33.1959 10.616 33.2204 10.5949 33.2466L6.81382 37.838C6.33948 37.5369 5.77791 37.4272 5.22381 37.5336C4.64605 37.644 4.14637 37.973 3.81657 38.4598L2.32957 40.6525C1.64963 41.6556 1.91213 43.0259 2.9144 43.7067L13.0895 50.6191C13.4584 50.8696 13.8845 51 14.3211 51C14.4598 51 14.5998 50.9867 14.7393 50.9601C15.3167 50.8496 15.8164 50.5207 16.1462 50.0339L17.6332 47.8412C18.3131 46.8381 18.051 45.4678 17.0487 44.787L16.9906 44.7476C17.6988 43.9438 18.6429 43.3677 19.6701 43.1301C21.8345 42.6288 24.3815 42.9515 26.109 43.2377C28.2461 43.5916 30.4907 43.4707 32.6003 42.888L35.5328 42.0776C37.4862 41.5376 39.2839 40.6284 40.8764 39.3749C40.8884 39.3653 40.9001 39.3558 40.9117 39.3454L45.9463 34.8865C46.8044 34.2298 46.9913 33.0925 46.6952 32.1708H53.1192C54.4002 32.1708 55.4423 31.1287 55.4423 29.8477V28.8753C55.4423 27.5944 54.4002 26.5522 53.1192 26.5522ZM28.2211 2.59291C29.5624 2.59291 30.3661 2.92479 30.5131 3.10921C30.5023 3.86475 30.1202 4.56173 29.4984 4.97958C29.3418 4.97127 29.1873 4.96463 29.0332 4.95881C28.9813 4.95715 28.9293 4.95466 28.8774 4.95341C28.6552 4.94677 28.4359 4.94344 28.2211 4.94344C28.0687 4.94344 27.9134 4.94552 27.7568 4.94884C27.6812 4.95009 27.6052 4.95217 27.5292 4.95466C27.4386 4.95757 27.3472 4.96047 27.2558 4.96421C27.1516 4.96878 27.0473 4.97335 26.9435 4.97917C26.3217 4.56131 25.94 3.86433 25.9292 3.10921C26.0762 2.92479 26.8799 2.59291 28.2211 2.59291ZM33.9324 32.555C33.873 32.4205 33.8019 32.2925 33.7218 32.1708H41.3607L38.0577 34.3569L33.3496 35.7188L33.1897 35.7226C34.096 34.967 34.4267 33.6769 33.9324 32.555ZM25.2962 32.1708L24.1469 32.4105L23.2584 32.1708H25.2962ZM16.3148 46.9473L14.8282 49.14C14.7373 49.2746 14.5994 49.3651 14.4399 49.3959C14.2808 49.4262 14.1188 49.393 13.9846 49.3016L3.80951 42.3891C3.53288 42.2014 3.4606 41.8234 3.64835 41.5468L5.13534 39.3537C5.22631 39.2195 5.36379 39.1285 5.52329 39.0982C5.56192 39.0907 5.60055 39.087 5.63876 39.087C5.75921 39.087 5.87676 39.1231 5.97853 39.1925L6.52805 39.5655C6.52805 39.5659 6.52846 39.5659 6.52846 39.5659L16.1536 46.1045C16.4303 46.2923 16.5025 46.6707 16.3148 46.9473ZM44.9689 33.6287C44.9498 33.6424 44.9316 33.6574 44.9137 33.6732L39.8737 38.1375C38.4528 39.2519 36.8495 40.061 35.1087 40.542L32.1762 41.3524C30.288 41.8745 28.2801 41.9829 26.3699 41.6664C24.5082 41.3582 21.7519 41.013 19.3108 41.5784C17.8969 41.9057 16.606 42.7181 15.6668 43.8479L8.13924 38.7344L11.7928 34.2975C13.1747 32.9928 14.9271 32.2182 16.6051 32.1708H16.6375C17.158 32.1621 17.7088 32.3154 18.2915 32.4786C18.4086 32.511 18.5254 32.5438 18.6425 32.5754L23.9159 33.998C24.0368 34.0304 24.1635 34.0341 24.286 34.0084L31.1926 32.5683C31.5058 32.5035 31.8348 32.5671 32.0952 32.7436C32.2634 32.8578 32.3947 33.0148 32.4749 33.1972C32.7116 33.7342 32.4886 34.3648 31.9594 34.6372L29.6031 35.885C29.277 36.0578 29.1125 36.4316 29.2051 36.7888C29.2982 37.1464 29.6234 37.3898 29.9931 37.3849L33.4883 37.3093C33.5577 37.3076 33.6263 37.2972 33.6923 37.2781L38.6172 35.8534C38.6949 35.831 38.7684 35.7969 38.8357 35.7525L43.8043 32.4637C44.2213 32.2061 44.7762 31.9943 45.0715 32.43C45.3017 32.7689 45.3071 33.3791 44.9689 33.6287Z" fill="#0090A1"/>
<path d="M53.1192 26.5522H51.2293C51.0523 23.6788 50.3525 20.9054 49.1413 18.2982C48.9564 17.899 48.4829 17.7262 48.0837 17.911C47.6846 18.0963 47.5114 18.5698 47.6966 18.969C48.8094 21.3652 49.4586 23.9126 49.633 26.5522H13.1535C12.7136 26.5522 12.3572 26.9086 12.3572 27.3485C12.3572 27.7883 12.7136 28.1447 13.1535 28.1447H53.1192C53.5221 28.1447 53.8494 28.4724 53.8494 28.8753V29.8473C53.8494 30.2502 53.5221 30.5779 53.1192 30.5779H3.32312C2.92022 30.5779 2.59291 30.2502 2.59291 29.8473V28.8753C2.59291 28.4724 2.92022 28.1447 3.32312 28.1447H9.4414C9.88126 28.1447 10.2381 27.7883 10.2381 27.3485C10.2381 26.9086 9.88126 26.5522 9.4414 26.5522H6.80925C7.16023 21.2618 9.42894 16.3401 13.2528 12.6177C16.9378 9.0306 21.6996 6.9189 26.7886 6.58412C26.7915 6.58412 26.7944 6.58454 26.7973 6.58412C27.0141 6.57 27.2284 6.5592 27.4403 6.55131C27.4826 6.55006 27.5246 6.54799 27.567 6.54674C27.6425 6.54425 27.7177 6.54259 27.7921 6.54093C27.935 6.53843 28.0778 6.53594 28.2211 6.53594C28.4114 6.53594 28.6016 6.53968 28.7914 6.54466C28.8475 6.54633 28.9032 6.54799 28.9597 6.54965C29.1059 6.55463 29.2517 6.56211 29.3975 6.57C29.4747 6.57415 29.552 6.57831 29.6296 6.58329C36.1678 7.01278 42.1831 10.4129 45.9264 15.865C46.1752 16.2272 46.6711 16.3198 47.0337 16.0706C47.3963 15.8218 47.4885 15.3258 47.2393 14.9632C43.5559 9.59799 37.8227 6.08403 31.4859 5.17771C31.883 4.56131 32.106 3.83567 32.106 3.07556C32.106 2.64276 31.9129 1.84485 30.6194 1.36884C29.9736 1.13125 29.1217 1 28.2211 1C27.3202 1 26.4683 1.13125 25.8224 1.36884C24.529 1.84485 24.3363 2.64276 24.3363 3.07556C24.3363 3.8336 24.5585 4.55799 24.9531 5.17314C20.1419 5.85392 15.6797 8.03207 12.1417 11.4763C8.0084 15.4999 5.56649 20.8281 5.21301 26.5518H3.32312C2.04214 26.5522 1 27.5944 1 28.8753V29.8473C1 31.1287 2.04214 32.1708 3.32312 32.1708H11.9024C11.4742 32.4641 11.0638 32.793 10.6796 33.1581L10.6638 33.1731C10.6393 33.1959 10.616 33.2204 10.5949 33.2466L6.81382 37.838C6.33948 37.5369 5.77791 37.4272 5.22381 37.5336C4.64605 37.644 4.14637 37.973 3.81657 38.4598L2.32957 40.6525C1.64963 41.6556 1.91213 43.0259 2.9144 43.7067L13.0895 50.6191C13.4584 50.8696 13.8845 51 14.3211 51C14.4598 51 14.5998 50.9867 14.7393 50.9601C15.3167 50.8496 15.8164 50.5207 16.1462 50.0339L17.6332 47.8412C18.3131 46.8381 18.051 45.4678 17.0487 44.787L16.9906 44.7476C17.6988 43.9438 18.6429 43.3677 19.6701 43.1301C21.8345 42.6288 24.3815 42.9515 26.109 43.2377C28.2461 43.5916 30.4907 43.4707 32.6003 42.888L35.5328 42.0776C37.4862 41.5376 39.2839 40.6284 40.8764 39.3749C40.8884 39.3653 40.9001 39.3558 40.9117 39.3454L45.9463 34.8865C46.8044 34.2298 46.9913 33.0925 46.6952 32.1708H53.1192C54.4002 32.1708 55.4423 31.1287 55.4423 29.8477V28.8753C55.4423 27.5944 54.4002 26.5522 53.1192 26.5522ZM28.2211 2.59291C29.5624 2.59291 30.3661 2.92479 30.5131 3.10921C30.5023 3.86475 30.1202 4.56173 29.4984 4.97958C29.3418 4.97127 29.1873 4.96463 29.0332 4.95881C28.9813 4.95715 28.9293 4.95466 28.8774 4.95341C28.6552 4.94677 28.4359 4.94344 28.2211 4.94344C28.0687 4.94344 27.9134 4.94552 27.7568 4.94884C27.6812 4.95009 27.6052 4.95217 27.5292 4.95466C27.4386 4.95757 27.3472 4.96047 27.2558 4.96421C27.1516 4.96878 27.0473 4.97335 26.9435 4.97917C26.3217 4.56131 25.94 3.86433 25.9292 3.10921C26.0762 2.92479 26.8799 2.59291 28.2211 2.59291ZM33.9324 32.555C33.873 32.4205 33.8019 32.2925 33.7218 32.1708H41.3607L38.0577 34.3569L33.3496 35.7188L33.1897 35.7226C34.096 34.967 34.4267 33.6769 33.9324 32.555ZM25.2962 32.1708L24.1469 32.4105L23.2584 32.1708H25.2962ZM16.3148 46.9473L14.8282 49.14C14.7373 49.2746 14.5994 49.3651 14.4399 49.3959C14.2808 49.4262 14.1188 49.393 13.9846 49.3016L3.80951 42.3891C3.53288 42.2014 3.4606 41.8234 3.64835 41.5468L5.13534 39.3537C5.22631 39.2195 5.36379 39.1285 5.52329 39.0982C5.56192 39.0907 5.60055 39.087 5.63876 39.087C5.75921 39.087 5.87676 39.1231 5.97853 39.1925L6.52805 39.5655C6.52805 39.5659 6.52846 39.5659 6.52846 39.5659L16.1536 46.1045C16.4303 46.2923 16.5025 46.6707 16.3148 46.9473ZM44.9689 33.6287C44.9498 33.6424 44.9316 33.6574 44.9137 33.6732L39.8737 38.1375C38.4528 39.2519 36.8495 40.061 35.1087 40.542L32.1762 41.3524C30.288 41.8745 28.2801 41.9829 26.3699 41.6664C24.5082 41.3582 21.7519 41.013 19.3108 41.5784C17.8969 41.9057 16.606 42.7181 15.6668 43.8479L8.13924 38.7344L11.7928 34.2975C13.1747 32.9928 14.9271 32.2182 16.6051 32.1708H16.6375C17.158 32.1621 17.7088 32.3154 18.2915 32.4786C18.4086 32.511 18.5254 32.5438 18.6425 32.5754L23.9159 33.998C24.0368 34.0304 24.1635 34.0341 24.286 34.0084L31.1926 32.5683C31.5058 32.5035 31.8348 32.5671 32.0952 32.7436C32.2634 32.8578 32.3947 33.0148 32.4749 33.1972C32.7116 33.7342 32.4886 34.3648 31.9594 34.6372L29.6031 35.885C29.277 36.0578 29.1125 36.4316 29.2051 36.7888C29.2982 37.1464 29.6234 37.3898 29.9931 37.3849L33.4883 37.3093C33.5577 37.3076 33.6263 37.2972 33.6923 37.2781L38.6172 35.8534C38.6949 35.831 38.7684 35.7969 38.8357 35.7525L43.8043 32.4637C44.2213 32.2061 44.7762 31.9943 45.0715 32.43C45.3017 32.7689 45.3071 33.3791 44.9689 33.6287Z" stroke="#0090A1" stroke-width="0.6" mask="url(#path-1-outside-1)"/>
</svg>

<svg width="56" height="52" viewBox="0 0 56 52" fill="none" xmlns="http://www.w3.org/2000/svg"><mask id="a" maskUnits="userSpaceOnUse" x="0" y="0" width="56" height="52" fill="#000"><path fill="#fff" d="M0 0h56v52H0z"/><path d="M53.12 26.552h-1.89a22.827 22.827 0 00-2.089-8.254.796.796 0 10-1.444.671 21.243 21.243 0 011.936 7.583h-36.48a.796.796 0 100 1.593H53.12a.73.73 0 01.73.73v.972a.73.73 0 01-.73.73H3.323a.731.731 0 01-.73-.73v-.972a.73.73 0 01.73-.73h6.118a.796.796 0 100-1.593H6.81a21.333 21.333 0 016.444-13.934A21.331 21.331 0 0126.79 6.584h.008c.217-.014.431-.025.643-.033.043 0 .085-.003.127-.004l.225-.006a21.745 21.745 0 011 .004l.168.005a21.887 21.887 0 01.67.033 21.477 21.477 0 0116.296 9.282.796.796 0 001.313-.902 23.071 23.071 0 00-15.753-9.785 3.88 3.88 0 00.62-2.102c0-.433-.193-1.231-1.487-1.707C29.974 1.13 29.122 1 28.221 1c-.9 0-1.753.131-2.399.369-1.293.476-1.486 1.274-1.486 1.707 0 .758.223 1.482.617 2.097a22.911 22.911 0 00-12.811 6.303 22.917 22.917 0 00-6.929 15.076h-1.89A2.326 2.326 0 001 28.875v.972a2.326 2.326 0 002.323 2.324h8.58a9.875 9.875 0 00-1.223.987l-.016.015a.705.705 0 00-.07.074l-3.78 4.591a2.182 2.182 0 00-1.59-.304 2.178 2.178 0 00-1.407.926L2.33 40.653a2.203 2.203 0 00.584 3.054l10.175 6.912a2.185 2.185 0 001.65.341 2.184 2.184 0 001.407-.926l1.487-2.193a2.203 2.203 0 00-.584-3.054l-.058-.04a5.148 5.148 0 012.68-1.617c2.163-.501 4.71-.178 6.438.108 2.137.354 4.382.233 6.491-.35l2.933-.81a15.099 15.099 0 005.379-2.733l5.034-4.459c.858-.656 1.045-1.794.75-2.715h6.423a2.326 2.326 0 002.323-2.323v-.973a2.326 2.326 0 00-2.323-2.323zm-24.9-23.96c1.341 0 2.145.333 2.292.517a2.293 2.293 0 01-1.015 1.87 30.42 30.42 0 00-.465-.02l-.156-.006a22.003 22.003 0 00-1.348.002c-.09.003-.182.005-.273.01-.104.004-.209.008-.313.014a2.292 2.292 0 01-1.014-1.87c.147-.184.95-.516 2.292-.516zm5.711 29.963a2.637 2.637 0 00-.21-.384h7.639l-3.303 2.186-4.708 1.362-.16.004a2.71 2.71 0 00.742-3.168zm-8.636-.384l-1.15.24-.888-.24h2.038zm-8.981 14.776l-1.487 2.193a.603.603 0 01-.843.162L3.81 42.389a.607.607 0 01-.162-.842l1.487-2.193a.601.601 0 01.504-.267.6.6 0 01.34.105l.55.373 9.625 6.54a.608.608 0 01.16.842zM44.969 33.63a.702.702 0 00-.055.044l-5.04 4.465a13.515 13.515 0 01-4.765 2.404l-2.933.81a13.59 13.59 0 01-5.806.314c-1.862-.308-4.618-.653-7.06-.088a6.765 6.765 0 00-3.643 2.27l-7.528-5.114 3.654-4.437c1.382-1.304 3.134-2.079 4.812-2.126h.032c.521-.009 1.072.144 1.654.308l.351.096 5.274 1.423c.12.032.247.036.37.01l6.907-1.44c.313-.064.642 0 .902.176.168.114.3.27.38.453a1.114 1.114 0 01-.516 1.44l-2.356 1.248a.796.796 0 00.39 1.5l3.495-.076a.805.805 0 00.204-.03l4.925-1.426a.798.798 0 00.219-.1l4.968-3.29c.417-.257.972-.469 1.267-.033.23.339.236.95-.102 1.199z"/></mask><path d="M53.12 26.552h-1.89a22.827 22.827 0 00-2.089-8.254.796.796 0 10-1.444.671 21.243 21.243 0 011.936 7.583h-36.48a.796.796 0 100 1.593H53.12a.73.73 0 01.73.73v.972a.73.73 0 01-.73.73H3.323a.731.731 0 01-.73-.73v-.972a.73.73 0 01.73-.73h6.118a.796.796 0 100-1.593H6.81a21.333 21.333 0 016.444-13.934A21.331 21.331 0 0126.79 6.584h.008c.217-.014.431-.025.643-.033.043 0 .085-.003.127-.004l.225-.006a21.745 21.745 0 011 .004l.168.005a21.887 21.887 0 01.67.033 21.477 21.477 0 0116.296 9.282.796.796 0 001.313-.902 23.071 23.071 0 00-15.753-9.785 3.88 3.88 0 00.62-2.102c0-.433-.193-1.231-1.487-1.707C29.974 1.13 29.122 1 28.221 1c-.9 0-1.753.131-2.399.369-1.293.476-1.486 1.274-1.486 1.707 0 .758.223 1.482.617 2.097a22.911 22.911 0 00-12.811 6.303 22.917 22.917 0 00-6.929 15.076h-1.89A2.326 2.326 0 001 28.875v.972a2.326 2.326 0 002.323 2.324h8.58a9.875 9.875 0 00-1.223.987l-.016.015a.705.705 0 00-.07.074l-3.78 4.591a2.182 2.182 0 00-1.59-.304 2.178 2.178 0 00-1.407.926L2.33 40.653a2.203 2.203 0 00.584 3.054l10.175 6.912a2.185 2.185 0 001.65.341 2.184 2.184 0 001.407-.926l1.487-2.193a2.203 2.203 0 00-.584-3.054l-.058-.04a5.148 5.148 0 012.68-1.617c2.163-.501 4.71-.178 6.438.108 2.137.354 4.382.233 6.491-.35l2.933-.81a15.099 15.099 0 005.379-2.733l5.034-4.459c.858-.656 1.045-1.794.75-2.715h6.423a2.326 2.326 0 002.323-2.323v-.973a2.326 2.326 0 00-2.323-2.323zm-24.9-23.96c1.341 0 2.145.333 2.292.517a2.293 2.293 0 01-1.015 1.87 30.42 30.42 0 00-.465-.02l-.156-.006a22.003 22.003 0 00-1.348.002c-.09.003-.182.005-.273.01-.104.004-.209.008-.313.014a2.292 2.292 0 01-1.014-1.87c.147-.184.95-.516 2.292-.516zm5.711 29.963a2.637 2.637 0 00-.21-.384h7.639l-3.303 2.186-4.708 1.362-.16.004a2.71 2.71 0 00.742-3.168zm-8.636-.384l-1.15.24-.888-.24h2.038zm-8.981 14.776l-1.487 2.193a.603.603 0 01-.843.162L3.81 42.389a.607.607 0 01-.162-.842l1.487-2.193a.601.601 0 01.504-.267.6.6 0 01.34.105l.55.373 9.625 6.54a.608.608 0 01.16.842zM44.969 33.63a.702.702 0 00-.055.044l-5.04 4.465a13.515 13.515 0 01-4.765 2.404l-2.933.81a13.59 13.59 0 01-5.806.314c-1.862-.308-4.618-.653-7.06-.088a6.765 6.765 0 00-3.643 2.27l-7.528-5.114 3.654-4.437c1.382-1.304 3.134-2.079 4.812-2.126h.032c.521-.009 1.072.144 1.654.308l.351.096 5.274 1.423c.12.032.247.036.37.01l6.907-1.44c.313-.064.642 0 .902.176.168.114.3.27.38.453a1.114 1.114 0 01-.516 1.44l-2.356 1.248a.796.796 0 00.39 1.5l3.495-.076a.805.805 0 00.204-.03l4.925-1.426a.798.798 0 00.219-.1l4.968-3.29c.417-.257.972-.469 1.267-.033.23.339.236.95-.102 1.199z" fill="#0090A1"/><path d="M53.12 26.552h-1.89a22.827 22.827 0 00-2.089-8.254.796.796 0 10-1.444.671 21.243 21.243 0 011.936 7.583h-36.48a.796.796 0 100 1.593H53.12a.73.73 0 01.73.73v.972a.73.73 0 01-.73.73H3.323a.731.731 0 01-.73-.73v-.972a.73.73 0 01.73-.73h6.118a.796.796 0 100-1.593H6.81a21.333 21.333 0 016.444-13.934A21.331 21.331 0 0126.79 6.584h.008c.217-.014.431-.025.643-.033.043 0 .085-.003.127-.004l.225-.006a21.745 21.745 0 011 .004l.168.005a21.887 21.887 0 01.67.033 21.477 21.477 0 0116.296 9.282.796.796 0 001.313-.902 23.071 23.071 0 00-15.753-9.785 3.88 3.88 0 00.62-2.102c0-.433-.193-1.231-1.487-1.707C29.974 1.13 29.122 1 28.221 1c-.9 0-1.753.131-2.399.369-1.293.476-1.486 1.274-1.486 1.707 0 .758.223 1.482.617 2.097a22.911 22.911 0 00-12.811 6.303 22.917 22.917 0 00-6.929 15.076h-1.89A2.326 2.326 0 001 28.875v.972a2.326 2.326 0 002.323 2.324h8.58a9.875 9.875 0 00-1.223.987l-.016.015a.705.705 0 00-.07.074l-3.78 4.591a2.182 2.182 0 00-1.59-.304 2.178 2.178 0 00-1.407.926L2.33 40.653a2.203 2.203 0 00.584 3.054l10.175 6.912a2.185 2.185 0 001.65.341 2.184 2.184 0 001.407-.926l1.487-2.193a2.203 2.203 0 00-.584-3.054l-.058-.04a5.148 5.148 0 012.68-1.617c2.163-.501 4.71-.178 6.438.108 2.137.354 4.382.233 6.491-.35l2.933-.81a15.099 15.099 0 005.379-2.733l5.034-4.459c.858-.656 1.045-1.794.75-2.715h6.423a2.326 2.326 0 002.323-2.323v-.973a2.326 2.326 0 00-2.323-2.323zm-24.9-23.96c1.341 0 2.145.333 2.292.517a2.293 2.293 0 01-1.015 1.87 30.42 30.42 0 00-.465-.02l-.156-.006a22.003 22.003 0 00-1.348.002c-.09.003-.182.005-.273.01-.104.004-.209.008-.313.014a2.292 2.292 0 01-1.014-1.87c.147-.184.95-.516 2.292-.516zm5.711 29.963a2.637 2.637 0 00-.21-.384h7.639l-3.303 2.186-4.708 1.362-.16.004a2.71 2.71 0 00.742-3.168zm-8.636-.384l-1.15.24-.888-.24h2.038zm-8.981 14.776l-1.487 2.193a.603.603 0 01-.843.162L3.81 42.389a.607.607 0 01-.162-.842l1.487-2.193a.601.601 0 01.504-.267.6.6 0 01.34.105l.55.373s0 0 0 0l9.625 6.54a.608.608 0 01.16.842zM44.969 33.63a.702.702 0 00-.055.044l-5.04 4.465a13.515 13.515 0 01-4.765 2.404l-2.933.81a13.59 13.59 0 01-5.806.314c-1.862-.308-4.618-.653-7.06-.088a6.765 6.765 0 00-3.643 2.27l-7.528-5.114 3.654-4.437c1.382-1.304 3.134-2.079 4.812-2.126h.032c.521-.009 1.072.144 1.654.308l.351.096 5.274 1.423c.12.032.247.036.37.01l6.907-1.44c.313-.064.642 0 .902.176.168.114.3.27.38.453a1.114 1.114 0 01-.516 1.44l-2.356 1.248a.796.796 0 00.39 1.5l3.495-.076a.805.805 0 00.204-.03l4.925-1.426a.798.798 0 00.219-.1l4.968-3.29c.417-.257.972-.469 1.267-.033.23.339.236.95-.102 1.199z" stroke="#0090A1" stroke-width=".6" mask="url(#a)"/></svg>
